X: 100334
M: C|
L: 1/8
K: G
(uBc) | dcBA G(gfg) | e4 d4 | cdcB ABAG | F4 E4 | DEFG A2B2 |
c2(de) d2c2 | BAGF E2F2 | G6 :| ud2 | g2bg e2ag | f4 d4 | g2bg e2ag |
f4 d2ef | (gd)dd (gd)dd | gdgd (gd)dd | g2f2 (ed)cB |


